packages/ui-icons/svg/Line/move-up-top.svg

<svg viewBox="0 0 1920 1920" version="1.1" xmlns="http://www.w3.org/2000/svg">
    <path d="M1920,1672.03136 L1920,1778.70039 L533.302518,1778.70039 L533.302518,1672.03136 L1920,1672.03136 Z M357.661281,141 L662.094713,445.326763 L357.661281,749.760195 L282.352941,674.238516 L457.930176,498.661281 L106.562368,498.661281 L106.562368,1778.68973 L0,1778.68973 L0,392.098913 L457.930176,392.098913 L282.352941,216.30834 L357.661281,141 Z M1920,1245.24854 L1920,1352.02424 L533.302518,1352.02424 L533.302518,1245.24854 L1920,1245.24854 Z M1920,818.67906 L1920,925.348097 L533.302518,925.348097 L533.302518,818.67906 L1920,818.67906 Z M1066.6477,392.002911 L1066.6477,498.671948 L853.309629,498.671948 L853.309629,392.002911 L1066.6477,392.002911 Z M1493.32385,392.002911 L1493.32385,498.671948 L1279.98578,498.671948 L1279.98578,392.002911 L1493.32385,392.002911 Z M1920,392.002911 L1920,498.671948 L1706.66193,498.671948 L1706.66193,392.002911 L1920,392.002911 Z" stroke="none" stroke-width="1" fill-rule="evenodd"/>
</svg>

<svg viewBox="0 0 1920 1920" version="1.1" xmlns="http://www.w3.org/2000/svg">
    <path d="M533.303 1778.7v-106.669H1920v106.67H533.303zm0-853.352V818.68H1920v106.67H533.303zm0 426.676V1245.25H1920v106.775H533.303zM357.66 141l304.434 304.327L357.66 749.76l-75.308-75.521L457.93 498.66H106.562V1778.69H0V392.099h457.93l-175.577-175.79L357.66 141zM853.31 498.672v-106.67h213.338v106.67H853.31zm426.676 0v-106.67h213.338v106.67h-213.338zm426.676 0v-106.67H1920v106.67h-213.338z" stroke="none" stroke-width="1" fill-rule="evenodd"/>
</svg>
